!!!!SEGMENT: pl-gd--ee-2628--006-012_stabile-annibale--il-terzo-libro-de-madrigali-a-cinque-voci-piangea-la-donna-mia.krn
!!!cenid: 15xx:1079
!!!COM: Stabile, Annibale
!!!COM-rismID: pe30009662
!!!CDT: ~1535-1595/04
!!!CNT: Italian
!!!GTL: Il terzo libro de madrigali a cinque voci
!!!OTL: Piangea la Donna mia
!!!OMV: 012
!!!PDT: 1585
!!!AGN:
!!!SMS-siglum: PL-GD
!!!SMS-shelfmark: Ee 2628
!!!SMS-shelfwork: 006-012 G
!!!SMS-variant:
!!!SMS-altvar:
!!!NIFC-rismSourceID: 990060530
!!!NIFC-islandoraID: pl-gd:66139
!!!URL-pdf-islandora: https://repozytorium.nifc.pl/islandora/object/pl-gd%3A66139/datastream/PDF/view
!!!URL-scan: https://polish.musicsources.pl/pl/lokalizacje/galeria/klocki-introligatorskie/673 @EN{Scan on Polish Music Herritage in Open Access Website} @PL{Skany w portalu Dziedzictwo Muzyki Polskiej w otwartym dostępie}
!!!ONB-nifc: UWAGA: Canto: s. 90-101, Tenore: s. 246-257, Basso: s. 402-413, Quinto: s. 724-735. Dla głosu Alto proszę skorzystać z https://pbc.gda.pl/dlibra/publication/87582/edition/79411/content, str. 25-48. Uwaga: utwory podzielone wg spisu treści dostępnych na końcu ksiąg – proszę sprawdzać sąsiednie tytuły. Głos Quinto proszę umieszczać wg ambitusu (może się różnić w zależności od utworu).
!!!AIN: 1 alto 1 bass 1 soprn 1 tenor 1 vox
!!!key: a
**kern	**text	**kern	**text	**kern	**text	**kern	**text	**kern	**text
*part5	*part5	*part4	*part4	*part3	*part3	*part2	*part2	*part1	*part1
*staff5	*staff5	*staff4	*staff4	*staff3	*staff3	*staff2	*staff2	*staff1	*staff1
*I"BASSO	*	*I"TENORE	*	*I"QVINTO	*	*I"ALTO	*	*I"CANTO	*
*I'B	*	*I'T	*	*I'V	*	*I'A	*	*I'S	*
*ICvox	*	*ICvox	*	*ICvox	*	*ICvox	*	*ICvox	*
*Ibass	*	*Itenor	*	*Ivox	*	*Ialto	*	*Isoprn	*
*clefF4	*	*clefC4	*	*clefC1	*	*clefC3	*	*clefC1	*
*k[]	*	*k[]	*	*k[]	*	*k[]	*	*k[]	*
*a:	*	*a:	*	*a:	*	*a:	*	*a:	*
*M4/4	*	*M4/4	*	*M4/4	*	*M4/4	*	*M4/4	*
*met(C)	*	*met(C)	*	*met(C)	*	*met(C)	*	*met(C)	*
=1-	=1-	=1-	=1-	=1-	=1-	=1-	=1-	=1-	=1-
00r	.	0r	.	0r	.	1B	PIn-	1r	.
=2-	=2-	=2-	=2-	=2-	=2-	=2-	=2-	=2-	=2-
.	.	.	.	.	.	1.e	-gea	1b	PIn-
=3-	=3-	=3-	=3-	=3-	=3-	=3-	=3-	=3-	=3-
.	.	1E	PIn-	2r	.	.	.	1g#X	-gea
.	.	.	.	1e/	PIn-	2B/	la	.	.
=4-	=4-	=4-	=4-	=4-	=4-	=4-	=4-	=4-	=4-
.	.	1.A	-gea	.	.	2c/	Don-	2a\	la
.	.	.	.	1a\	-gea	2A/	-na	1cc\	Don-
=5-	=5-	=5-	=5-	=5-	=5-	=5-	=5-	=5-	=5-
0r	.	.	.	.	.	1e	mia	.	.
.	.	2E/	la	2g/	la	.	.	2b\	-na
=6-	=6-	=6-	=6-	=6-	=6-	=6-	=6-	=6-	=6-
.	.	2F/	Don-	2f/	Don-	2r	.	1a	mia
.	.	2D/	-na	2f/	-na	2.d\	quan-	.	.
=7-	=7-	=7-	=7-	=7-	=7-	=7-	=7-	=7-	=7-
1AA	PIn-	1A	mia	0e	mia	.	.	2r	.
.	.	.	.	.	.	4d\	-do	.	.
.	.	.	.	.	.	2c/	dal	2.a\	quan-
=8-	=8-	=8-	=8-	=8-	=8-	=8-	=8-	=8-	=8-
1.E	-gea	2r	.	.	.	1B	pian-	.	.
.	.	.	.	.	.	.	.	4a\	-do
.	.	2.e\	quan-	.	.	.	.	2gny/	dal
=9-	=9-	=9-	=9-	=9-	=9-	=9-	=9-	=9-	=9-
.	.	.	.	1r	.	1B	-to	1g	pian-
.	.	4e\	-do	.	.	.	.	.	.
2BB/	la	2d\	dal	.	.	.	.	.	.
=10-	=10-	=10-	=10-	=10-	=10-	=10-	=10-	=10-	=10-
2C/	Don-	1c	pian-	2r	.	1r	.	1e	-to
2AA/	-na	.	.	2.a\	qun-	.	.	.	.
=11-	=11-	=11-	=11-	=11-	=11-	=11-	=11-	=11-	=11-
*	*	*	*	*	*	*	*ij	*	*
1E	mia	1B	-to	.	.	2.e\	quan-	1r	.
.	.	.	.	4a\	-do	.	.	.	.
.	.	.	.	2g/	dal	.	.	.	.
.	.	.	.	.	.	4e\	-do	.	.
*	*	*	*ij	*	*	*custos:d	*	*	*ij
!	!	!	!	!	!	!LO:LB:g=original	!	!	!
=12-	=12-	=12-	=12-	=12-	=12-	=12-	=12-	=12-	=12-
2r	.	1r	.	1f	pian-	2d\	del	2r	.
2.A\	quan-	.	.	.	.	2c/	pian-	2.cc\	quan-
=13-	=13-	=13-	=13-	=13-	=13-	=13-	=13-	=13-	=13-
.	.	2r	.	1e	-to	2A/	-to	.	.
4A\	-do	.	.	.	.	.	.	4cc\	-do
2G\	dal	2.e\	quan-	.	.	2r	.	2b\	dal
*	*	*	*	*custos:cc	*	*	*Xij	*custos:b	*
!	!	!	!	!LO:LB:g=original	!	!	!	!LO:LB:g=original	!
=14-	=14-	=14-	=14-	=14-	=14-	=14-	=14-	=14-	=14-
1F	pian-	.	.	1r	.	1r	.	1a	pian-
.	.	4e\	do	.	.	.	.	.	.
*	*	*custos:d	*	*	*	*	*	*	*
!	!	!LO:LB:g=original	!	!	!	!	!	!	!
.	.	2d\	dal	.	.	.	.	.	.
=15-	=15-	=15-	=15-	=15-	=15-	=15-	=15-	=15-	=15-
2E\	-to	1e	pian-	2r	.	0r	.	0g	-to
*custos:C	*ij	*	*	*	*ij	*	*	*	*Xij
!LO:LB:g=original	!	!	!	!	!	!	!	!	!
2.C/	quan-	.	.	2.cc\	quan-	.	.	.	.
=16-	=16-	=16-	=16-	=16-	=16-	=16-	=16-	=16-	=16-
.	.	1e	-to	.	.	.	.	.	.
4C/	-do	.	.	4cc\	-do	.	.	.	.
2E\	dal	.	.	2b\	dal	.	.	.	.
*	*	*	*Xij	*	*	*	*	*	*
=17-	=17-	=17-	=17-	=17-	=17-	=17-	=17-	=17-	=17-
1F	pian-	2r	.	1a	pian-	2r	.	0r	.
.	.	2.d\	quan-	.	.	2.f\	quan-	.	.
=18-	=18-	=18-	=18-	=18-	=18-	=18-	=18-	=18-	=18-
0G	-to	.	.	0g	-to	.	.	.	.
.	.	4d\	-do	.	.	4f\	-do	.	.
.	.	2c\	del	.	.	2e\	del	.	.
*	*Xij	*	*	*	*Xij	*	*	*	*
=19-	=19-	=19-	=19-	=19-	=19-	=19-	=19-	=19-	=19-
.	.	4.B\	pian-	.	.	1d	pian-	1r	.
.	.	8A\	.	.	.	.	.	.	.
.	.	2B\	.	.	.	.	.	.	.
=20-	=20-	=20-	=20-	=20-	=20-	=20-	=20-	=20-	=20-
2r	.	1c	-to	1r	.	2e\	-to	2r	.
2C/	Io	.	.	.	.	2e\	Io	2g/	Io
=21-	=21-	=21-	=21-	=21-	=21-	=21-	=21-	=21-	=21-
4.F\	vid-	2r	.	2r	.	4.c/	vid-	4.a\	vid-
8E\	-di	.	.	.	.	8c/	-di a	8g/	-di
8D/	a mil-	2A/	Io	2dd\	Il	8d\	mil-	8f/	a mil-
8C/	-le	.	.	.	.	8e\	-le a	8e/	-le a
4D/	a mil-	.	.	.	.	4d\	mil-	4f/	mil-
=22-	=22-	=22-	=22-	=22-	=22-	=22-	=22-	=22-	=22-
2C/	-le	4.c\	vid-	4.ee\	vid-	2G/	-le	1e	-le
.	.	8B\	-di	8dd\	-di a	.	.	.	.
*	*	*	*	*	*	*	*ij	*	*
2r	.	8A/	a mil-	8cc\	mil-	2c/	Io	.	.
.	.	8G/	-le	8b\	-le	.	.	.	.
.	.	4A/	a mil-	4cc\	a mil-	.	.	.	.
=23-	=23-	=23-	=23-	=23-	=23-	=23-	=23-	=23-	=23-
2r	.	1G	-le	1b	-le	4.d\	vid-	2r	.
.	.	.	.	.	.	8c\	-di	.	.
2E\	Io	.	.	.	.	8B/	a mil-	4r	.
.	.	.	.	.	.	8A/	-le	.	.
*	*	*	*	*	*	*	*	*	*ij
.	.	.	.	.	.	4B/	a mil-	4b\	Io
*	*	*	*	*	*	*custos:A	*	*	*
!	!	!	!	!	!	!LO:LB:g=original	!	!	!
=24-	=24-	=24-	=24-	=24-	=24-	=24-	=24-	=24-	=24-
4.A\	vid-	1r	.	1r	.	4A/	-le	4.cc\	vid-
*	*	*	*	*	*	*	*Xij	*	*
.	.	.	.	.	.	4c/	a	.	.
8G\	-di	.	.	.	.	.	.	8b\	-di a
8F\	a mil-	.	.	.	.	2d\	mil-	8a\	mil-
8E\	-le	.	.	.	.	.	.	8g\	-le a
4F\	a mil-	.	.	.	.	.	.	4a\	mi-
*custos:E	*	*	*	*	*	*	*	*	*
!LO:LB:g=original	!	!	!	!	!	!	!	!	!
=25-	=25-	=25-	=25-	=25-	=25-	=25-	=25-	=25-	=25-
2E\	-le	2r	.	2r	.	2e\	-le	2g#X/	-le
*	*	*	*	*	*	*	*	*	*Xij
2E\	V-	2B\	V-	2b\	V-	2e\	V-	2g#/	V-
=26-	=26-	=26-	=26-	=26-	=26-	=26-	=26-	=26-	=26-
2E\	ſcir	2B\	ſcir	2g#X/	-ſcir	2e\	-ſcir	2b\	-ſcir
*	*	*custos:A	*	*	*	*	*	*	*
!	!	!LO:LB:g=original	!	!	!	!	!	!	!
2.AA/	vi-	2A/	vi-	2.a\	vi-	2.e\	vi-	2.cc\	vi-
=27-	=27-	=27-	=27-	=27-	=27-	=27-	=27-	=27-	=27-
.	.	4c\	-ve	.	.	.	.	.	.
4GG#X/	-ve	4e\	fau-	4b\	-ve	4e\	-ve	4b\	-ve
*	*	*	*	*	*	*	*	*custos:a	*
!	!	!	!	!	!	!	!	!LO:LB:g=original	!
2AA/	fau-	2A/	-il-	2cc\	fau-	2e\	fau-	2a\	fa-
=28-	=28-	=28-	=28-	=28-	=28-	=28-	=28-	=28-	=28-
2E\	-il-	1B	-le	2b\	-il-	1e	-il-	2g#X/	-vil-
*	*	*	*	*custos:b	*	*	*	*	*
!	!	!	!	!LO:LB:g=original	!	!	!	!	!
4E\	-le	.	.	4b\	-le	.	.	2g#/	-le
4E\	On-	.	.	4b\	on-	.	.	.	.
=29-	=29-	=29-	=29-	=29-	=29-	=29-	=29-	=29-	=29-
4A\	-d'io	2r	.	4cc\	-d'io	1e	-le	2a\	On-
4A\	gri-	.	.	4cc\	gri-	.	.	.	.
2c\	-dai	4r	.	2ee\	-dai	.	.	4gny/	-d'io
.	.	4c\	On-	.	.	.	.	4g/	gri-
=30-	=30-	=30-	=30-	=30-	=30-	=30-	=30-	=30-	=30-
2r	.	4e\	-d'io	2r	.	4r	.	2g/	-dai
.	.	4e\	gri-	.	.	4c/	On-	.	.
1C/	ahi	2g\	-dai	1ee\	ahi	4e\	-d'io	2c/	a-
.	.	.	.	.	.	4e\	gri-	.	.
=31-	=31-	=31-	=31-	=31-	=31-	=31-	=31-	=31-	=31-
.	.	2e\	ahi	.	.	2g\	-dai	1cc	-hioc-
1F\	oc-	1c\	oc-	1ff\	oc-	1a\	ahi-	.	.
=32-	=32-	=32-	=32-	=32-	=32-	=32-	=32-	=32-	=32-
.	.	.	.	.	.	.	.	1cc	-chi
2C/	-chi	2c\	-chi	2ee\	-chi	2g\	-oc-	.	.
=33-	=33-	=33-	=33-	=33-	=33-	=33-	=33-	=33-	=33-
0r	.	4r	.	4r	.	2g\	-chi	4r	.
.	.	4c\	Se	4ee\	Se	.	.	4g/	Se
.	.	4B\	con	4dd\	con	4r	.	4g/	con
.	.	4A/	l'hu-	4cc\	l'hu-	4e\	Se	4a\	l'hu-
=34-	=34-	=34-	=34-	=34-	=34-	=34-	=34-	=34-	=34-
.	.	4G#X/	-mor	4b\	-mor	4e\	con	4b\	-mor
.	.	4A/	ar-	4a\	ar-	4e\	l'hu-	4cc#X\	ar-
*	*	*	*	*	*	*custos:d	*	*	*
!	!	!	!	!	!	!LO:LB:g=original	!	!	!
.	.	2F#X/	-de-	2a\	-de-	4d\	-mor	2dd\	-de-
.	.	.	.	.	.	4d\	ar-	.	.
=35-	=35-	=35-	=35-	=35-	=35-	=35-	=35-	=35-	=35-
2r	.	1Gny	-te	2gny/	-te	2d\	-de-	2b\	-te
2GGny/	co'l	.	.	2b\	co'l	4d\	-te	2g/	co'l
.	.	.	.	.	.	4d\	co'l	.	.
*custos:C	*	*custos:G	*	*	*	*	*	*	*
!LO:LB:g=original	!	!LO:LB:g=original	!	!	!	!	!	!	!
=36-	=36-	=36-	=36-	=36-	=36-	=36-	=36-	=36-	=36-
8C/	fo-	4r	.	2cc\	fa-	2e\	fa-	2.g/	fa-
8D/	.	.	.	.	.	.	.	.	.
8E\	.	4G/	co'l	.	.	.	.	.	.
8F\	.	.	.	.	.	.	.	.	.
4G\	.	4G/	fo-	2b\	-co	2d\	-co	.	.
4GG/	-co	4G/	-co	.	.	.	.	4g/	-co
*	*	*	*	*	*	*	*	*custos:f	*
!	!	!	!	!	!	!	!	!LO:LB:g=original	!
=37-	=37-	=37-	=37-	=37-	=37-	=37-	=37-	=37-	=37-
4D/	che	4A/	che	4a\	che	4r	.	4f/	che
*	*	*	*	*custos:cc	*	*	*	*	*
!	!	!	!	!LO:LB:g=original	!	!	!	!	!
4C/	fa-	4E/	fa-	2cc\	fa-	2c/	che	4e/	fa-
2AA/	-re-	8A/	-re-	.	.	.	.	2e/	-re-
.	.	8B\	.	.	.	.	.	.	.
.	.	8c\	.	4.a\	-re-	4c/	fa-	.	.
.	.	8A\	.	.	.	.	.	.	.
=38-	=38-	=38-	=38-	=38-	=38-	=38-	=38-	=38-	=38-
2E\	-te	2B\	.	.	.	2B/	-re-	1e	-te
.	.	.	.	8g#X\	.	.	.	.	.
.	.	.	.	4g#\	-te	.	.	.	.
4r	.	2A/	-te	4a\	Se	4c/	-te	.	.
4A\	Se	.	.	4cc\	con	4A/	Se	.	.
=39-	=39-	=39-	=39-	=39-	=39-	=39-	=39-	=39-	=39-
4G\	con	1r	.	4b\	l'hu-	4d\	con	1r	.
4F\	l'hu-	.	.	4a\	-mor	4d\	l'hu-	.	.
4E\	-mor	.	.	4g#X/	ar-	4e\	-mor	.	.
4F\	ar-	.	.	4a\	-de-	4A/	ar-	.	.
=40-	=40-	=40-	=40-	=40-	=40-	=40-	=40-	=40-	=40-
2D/	-de-	2r	.	2f#X/	-te	2A/	-de-	2r	.
*	*	*	*	*	*ij	*	*	*	*
2C/	-te	4r	.	4gny/	Se	4c/	-te	4r	.
*	*	*	*	*	*	*	*ij	*	*
.	.	4c\	Se	4g/	con	4c/	Se	4ee\	Se
=41-	=41-	=41-	=41-	=41-	=41-	=41-	=41-	=41-	=41-
1r	.	4B\	con	4g/	l'hu-	4d\	con	4dd\	con
.	.	4A/	l'hu-	4a\	-mor	4e\	l'hu-	4ccny\	a'hu-
*	*	*	*	*	*	*custos:e	*	*	*
!	!	!	!	!	!	!LO:LB:g=original	!	!	!
.	.	4G#X/	-mor	4b\	ar-	4e\	-mor	4b\	-mor
.	.	4A/	ar-	4cc\	-de-	4e\	ar-	4a\	ar-
=42-	=42-	=42-	=42-	=42-	=42-	=42-	=42-	=42-	=42-
2r	.	2F#X/	-de-	2dd\	-te	2d\	-de-	2a\	-de-
*	*	*	*	*	*Xij	*	*	*	*
2GG/	co'l	2Gny/	-te	4b\	co'l	4d\	-te	4g/	-te
*	*	*	*	*	*	*	*Xij	*	*
.	.	.	.	4g/	fo-	4d\	co'l	4b\	co'l
*custos:C	*	*	*	*custos:g	*	*	*	*	*
!LO:LB:g=original	!	!	!	!LO:LB:g=original	!	!	!	!	!
=43-	=43-	=43-	=43-	=43-	=43-	=43-	=43-	=43-	=43-
4.C/	ſo-	2r	.	1.g	-co	1e	fa-	1cc	fa-
8D/	.	.	.	.	.	.	.	.	.
4.E\	.	2G/	co'l	.	.	.	.	.	.
8F\	.	.	.	.	.	.	.	.	.
*	*	*custos:G	*	*	*	*	*	*	*
!	!	!LO:LB:g=original	!	!	!	!	!	!	!
=44-	=44-	=44-	=44-	=44-	=44-	=44-	=44-	=44-	=44-
2G\	.	8G/	ſo-	.	.	1d	-co	1b	-co
.	.	8A/	.	.	.	.	.	.	.
.	.	8B\	.	.	.	.	.	.	.
.	.	8c\	.	.	.	.	.	.	.
2GG/	-co	4d\	.	2g/	che	.	.	.	.
.	.	4G/	co	.	.	.	.	.	.
=45-	=45-	=45-	=45-	=45-	=45-	=45-	=45-	=45-	=45-
2D/	che	4A/	che	2fny/	fa-	2r	.	2a\	che
.	.	4Fny/	fa-	.	.	.	.	.	.
2C/	fa-	2G/	-re-	2e/	-re-	2.c/	che	1cc\	fa-
=46-	=46-	=46-	=46-	=46-	=46-	=46-	=46-	=46-	=46-
1AA	-re-	4A/	-te	0e	-te	.	.	.	.
.	.	2A/	che	.	.	4c/	fa-	.	.
.	.	.	.	.	.	1e\	-re-	1a\	-re-
.	.	4c\	fa-	.	.	.	.	.	.
=47-	=47-	=47-	=47-	=47-	=47-	=47-	=47-	=47-	=47-
1E	-te	1B	-re-	.	.	.	.	.	.
.	.	.	.	.	.	2B/	-te	2g#X\	-te
=48-	=48-	=48-	=48-	=48-	=48-	=48-	=48-	=48-	=48-
2r	.	2A/	-te	1e	.	1r	.	2r	.
2A\	All'-	2c\	Al-	.	.	.	.	2a\	Al
*	*	*	*	*	*	*	*	*custos:a	*
!	!	!	!	!	!	!	!	!LO:LB:g=original	!
=49-	=49-	=49-	=49-	=49-	=49-	=49-	=49-	=49-	=49-
1A	-hor	1c	-l'hor	00r	.	2r	.	2.a\	l'hor
.	.	.	.	.	.	2e\	All'	.	.
.	.	.	.	.	.	.	.	4e/	mi
=50-	=50-	=50-	=50-	=50-	=50-	=50-	=50-	=50-	=50-
2r	.	2r	.	.	.	1e	hor	2.gny/	diſ
2E\	mi	2e\	Al-	.	.	.	.	.	.
.	.	.	.	.	.	.	.	4a\	.
=51-	=51-	=51-	=51-	=51-	=51-	=51-	=51-	=51-	=51-
2G\	diſ's	2.e\	-l'hor	.	.	2B/	mi	2b\	.
2A\	a-	.	.	.	.	2.c/	diſ's	2a\	s'a-
.	.	4A/	mi	.	.	.	.	.	.
=52-	=52-	=52-	=52-	=52-	=52-	=52-	=52-	=52-	=52-
1F	-mo-	2c\	diſ's	.	.	.	.	2.a\	-mo-
.	.	.	.	.	.	4A/	a-	.	.
.	.	2d\	a-	.	.	1a\	-mo-	.	.
.	.	.	.	.	.	.	.	4b\	.
=53-	=53-	=53-	=53-	=53-	=53-	=53-	=53-	=53-	=53-
1E	-re	2.e\	-mo-	2r	.	.	.	2cc\	.
.	.	.	.	2ee\	All'	2g#X\	-re	2b\	-re
.	.	4d\	.	.	.	.	.	.	.
*	*	*custos:c	*	*	*	*	*	*	*
!	!	!LO:LB:g=original	!	!	!	!	!	!	!
=54-	=54-	=54-	=54-	=54-	=54-	=54-	=54-	=54-	=54-
00r	.	4c\	.	2ee\	hor	2r	.	00r	.
.	.	4B\	.	.	.	.	.	.	.
.	.	2.c\	.	2e/	mi	2gny\	mi	.	.
*	*	*	*	*	*	*custos:g	*	*	*
!	!	!	!	!	!	!LO:LB:g=original	!	!	!
=55-	=55-	=55-	=55-	=55-	=55-	=55-	=55-	=55-	=55-
.	.	.	.	2g/	diſ's	2g\	diſ's	.	.
.	.	4B\	.	.	.	.	.	.	.
.	.	4A\	.	1a\	a-	2c/	a-	.	.
.	.	4G/	.	.	.	.	.	.	.
=56-	=56-	=56-	=56-	=56-	=56-	=56-	=56-	=56-	=56-
.	.	4F/	.	.	.	1d	-mo-	.	.
.	.	4D/	.	.	.	.	.	.	.
.	.	1d\	.	1f/	-mo-	.	.	.	.
=57-	=57-	=57-	=57-	=57-	=57-	=57-	=57-	=57-	=57-
.	.	.	.	.	.	1A	-re	.	.
.	.	2c#X\	-re	2e/	-re	.	.	.	.
=58-	=58-	=58-	=58-	=58-	=58-	=58-	=58-	=58-	=58-
2r	.	2r	.	00r	.	2r	.	2r	.
2E\	Coſ-	2B\	Coſ-	.	.	2e\	Coſ-	2g#X/	Coſ-
*custos:E	*	*	*	*	*	*	*	*	*
!LO:LB:g=original	!	!	!	!	!	!	!	!	!
=59-	=59-	=59-	=59-	=59-	=59-	=59-	=59-	=59-	=59-
2.E\	-tei	2.B\	-tei	.	.	2.e\	-tei	2.gny/	-tei
4E\	per	4B\	per	.	.	4e\	per	4g/	per
=60-	=60-	=60-	=60-	=60-	=60-	=60-	=60-	=60-	=60-
2E\	cui	2B\	cui	.	.	2e\	cui	2g/	cui
2F#X\	di	2d\	di	.	.	2A/	di	2a\	di
=61-	=61-	=61-	=61-	=61-	=61-	=61-	=61-	=61-	=61-
1G	dog-	1e	dog-	.	.	2B/	dog-	1g	doglia
.	.	.	.	.	.	1c/	-lia	.	.
=62-	=62-	=62-	=62-	=62-	=62-	=62-	=62-	=62-	=62-
2Fny\	-lia	1d	-lia	0r	.	.	.	2a\	ogn'-
1G\	ogn'hor	.	.	.	.	1B/	ogn'	1g\	-hor
=63-	=63-	=63-	=63-	=63-	=63-	=63-	=63-	=63-	=63-
.	.	2d\	ogn'-	.	.	.	.	.	.
2D/	tra	2d\	-hor	.	.	2A/	hor	2f/	tra-
*	*	*	*	*	*	*	*	*custos:e	*
!	!	!	!	!	!	!	!	!LO:LB:g=original	!
=64-	=64-	=64-	=64-	=64-	=64-	=64-	=64-	=64-	=64-
2E\	boc-	2B\	tra-	2r	.	2G#X/	tra-	2e/	-boc-
2AA/	-chi	4cny\	-boc-	2a\	Am-	4A/	-boc-	4e/	-chi
.	.	4A/	-chi	.	.	4c/	-chi	4e/	am-
=65-	=65-	=65-	=65-	=65-	=65-	=65-	=65-	=65-	=65-
00r	.	2.F/	am-	2.a\	-mor-	2.c/	am-	2.f/	-mor-
.	.	4E/	-mor-	4cc\	-za	4e\	-mor-	4g/	-za
*	*	*custos:G	*	*custos:b	*	*	*	*	*
!	!	!LO:LB:g=original	!	!LO:LB:g=original	!	!	!	!	!
=66-	=66-	=66-	=66-	=66-	=66-	=66-	=66-	=66-	=66-
.	.	4G/	-za	4b\	con	4d\	-za	4g/	con
.	.	4C/	con	4ee\	l'ar-	4c/	con	4g/	l'ar-
*	*	*	*	*	*	*custos:B	*	*	*
!	!	!	!	!	!	!LO:LB:g=original	!	!	!
.	.	2G/	l'ar-	2dd\	-do-	2B/	l'ar-	2g/	-do-
=67-	=67-	=67-	=67-	=67-	=67-	=67-	=67-	=67-	=67-
.	.	2G/	-do-	2dd\	-re	2B/	-do-	2g/	-re
.	.	2D/	-re	2dd\	e'n-	2A/	-re	2f/	e'n-
=68-	=68-	=68-	=68-	=68-	=68-	=68-	=68-	=68-	=68-
.	.	2.A/	e'ncen-	2.cc\	-cen-	8A/	e'n-	2.e/	-cen-
.	.	.	.	.	.	8B/	-cen-	.	.
.	.	.	.	.	.	8c\	.	.	.
.	.	.	.	.	.	8d\	.	.	.
.	.	.	.	.	.	4e\	.	.	.
.	.	4E/	-de	4b\	-de	4e\	-de	4g/	-de
=69-	=69-	=69-	=69-	=69-	=69-	=69-	=69-	=69-	=69-
1r	.	4F/	con	4a\	con	4c/	con	4f/	con
.	.	4A/	l'hu-	4e/	l'hu-	4c/	l'hu-	4c/	l'hu-
.	.	2G/	-mor-	2g/	-mo-	2B/	-mo-	2d/	-mo-
=70-	=70-	=70-	=70-	=70-	=70-	=70-	=70-	=70-	=70-
2r	.	2C/	-re	1g	-re	1c	-re	2e/	-re
1c\	Ahi-	2C/	Ahi-	.	.	.	.	1ee\	ahi-
=71-	=71-	=71-	=71-	=71-	=71-	=71-	=71-	=71-	=71-
.	.	1G	-me	0r	.	1g	Ahi-	.	.
2B\	-me	.	.	.	.	.	.	2.dd\	-me
=72-	=72-	=72-	=72-	=72-	=72-	=72-	=72-	=72-	=72-
4r	.	1r	.	.	.	0e	-me	.	.
4A\	chi	.	.	.	.	.	.	4cc\	chi
*	*	*	*ij	*	*	*	*	*custos:cc	*
!	!	!	!	!	!	!	!	!LO:LB:g=original	!
4A\	mi	.	.	.	.	.	.	4cc\	mi
4G#X\	diſ-	.	.	.	.	.	.	4b\	diſ-
=73-	=73-	=73-	=73-	=73-	=73-	=73-	=73-	=73-	=73-
2A\	-en-	1c	Ahi-	1ee	Ahi-	.	.	2a\	-cen-
2E\	-de	.	.	.	.	.	.	2g/	-de
*custos:E	*	*	*	*	*	*	*	*	*
!LO:LB:g=original	!	!	!	!	!	!	!	!	!
=74-	=74-	=74-	=74-	=74-	=74-	=74-	=74-	=74-	=74-
0r	.	2B\	-me	2.dd\	-me	2g\	Ahi-	0r	.
*	*	*	*Xij	*	*	*	*	*	*
.	.	4r	.	.	.	2f\	-me	.	.
.	.	4A/	chi	4cc\	chi	.	.	.	.
=75-	=75-	=75-	=75-	=75-	=75-	=75-	=75-	=75-	=75-
.	.	4A/	mi	4cc\	mi	4r	.	.	.
.	.	4G/	di-	4b\	di-	4e\	chi	.	.
.	.	2F/	-ſcen-	1a\	-ſen-	4e\	mi	.	.
.	.	.	.	.	.	4d\	diſ-	.	.
=76-	=76-	=76-	=76-	=76-	=76-	=76-	=76-	=76-	=76-
2r	.	2.E/	-de	.	.	2c/	-en-	1r	.
*	*	*	*	*	*	*custos:B	*	*	*
!	!	!	!	!e	!	!LO:LB:g=original	!	!	!
4r	.	.	.	2g#X/	-de	2B/	-de	.	.
4E\	Se'l	4e\	Se'l	.	.	.	.	.	.
*	*	*custos:e	*	*	*	*	*	*	*
!	!	!LO:LB:g=original	!	!	!	!	!	!	!
=77-	=77-	=77-	=77-	=77-	=77-	=77-	=77-	=77-	=77-
4G#X\	foco	4e\	faco	1r	.	2r	.	2r	.
4A\	am-	4c#X\	am-	.	.	.	.	.	.
4F\	-mor-	4d\	-mor-	.	.	4r	.	4r	.
4E\	-za	4e\	-za	.	.	4e\	Se'l	4e/	Se'l
*	*ij	*	*ij	*custos:e	*	*	*	*	*
!	!	!	!	!LO:LB:g=original	!	!	!	!	!
=78-	=78-	=78-	=78-	=78-	=78-	=78-	=78-	=78-	=78-
2r	.	2r	.	2r	.	4e\	foco	4g#X/	faco
.	.	.	.	.	.	4c#X/	am-	4a\	am-
4r	.	4r	.	4r	.	4d\	-mor-	4f/	-mor-
4E\	Se'l	4G#X/	Se'l	4e/	Se'l	4B/	-za	4e/	-za
=79-	=79-	=79-	=79-	=79-	=79-	=79-	=79-	=79-	=79-
4E\	foco	4B\	fa-	4g#X/	foco	4r	.	1r	.
4C#X/	am-	4E/	-co	4a\	am-	2e\	E	.	.
2D\	-mor-	2A/	am-	2f/	-mor-	.	.	.	.
.	.	.	.	.	.	4d\	ſol	.	.
=80-	=80-	=80-	=80-	=80-	=80-	=80-	=80-	=80-	=80-
2E\	-za	4Gny/	-mor-	4e/	-za	4B/	l'hu-	4r	.
*	*Xij	*	*	*	*ij	*	*	*	*ij
.	.	4G/	-za	4e/	Se'l	2g\	-mor	4b\	Se'l
*	*	*	*Xij	*	*	*	*	*	*
2r	.	4G/	Se'l	4b\	faco	.	.	4dd\	faco
.	.	4E/	faco	2cc\	am-	4g\	in-	4ee\	am-
=81-	=81-	=81-	=81-	=81-	=81-	=81-	=81-	=81-	=81-
2AA/	E	2A/	ammor-	.	.	2e\	-cen-	2cc\	-mor-
.	.	.	.	2a\	-mor-	.	.	.	.
4.E\	ſol	4B\	-z'e	.	.	4e\	-de	2b\	-za
.	.	2B\	ſol	4g#X\	-za	4e\	Se'l	.	.
8E\	l'hu-	.	.	.	.	.	.	.	.
*	*	*	*	*	*Xij	*	*	*	*Xij
=82-	=82-	=82-	=82-	=82-	=82-	=82-	=82-	=82-	=82-
4E\	-mor	.	.	1r	.	4g\	foco	1r	.
4F\	in	4A/	l'hu-	.	.	4a\	am-	.	.
*custos:D	*	*	*	*	*	*	*	*	*
!LO:LB:g=original	!	!	!	!	!	!	!	!	!
2D/	cen-	4A/	-mor	.	.	2f\	-mor-	.	.
.	.	4B\	in-	.	.	.	.	.	.
=83-	=83-	=83-	=83-	=83-	=83-	=83-	=83-	=83-	=83-
2Cny/	-de	4cny\	-cen-	2r	.	2e\	-za	4r	.
.	.	4G/	-de	.	.	.	.	4e/	E
*	*	*	*	*	*	*custos:e	*	*custos:b	*
!	!	!	!	!	!	!LO:PB:g=original	!	!LO:LB:g=original	!
2r	.	4r	.	4r	.	2.e\	e Sol	4.b\	ſol
.	.	4E/	Se'l	4gny/	Se'l	.	.	.	.
.	.	.	.	.	.	.	.	8b\	l'hu-
*	*	*custos:G#	*	*	*	*	*	*	*
!	!	!LO:PB:g=original	!	!	!	!	!	!	!
=84-	=84-	=84-	=84-	=84-	=84-	=84-	=84-	=84-	=84-
0r	.	4G#X/	foc'	4e/	faco	.	.	4b\	-mor-
.	.	4A/	am-	4c/	am-	4e\	l'hu-	4cc\	-in-
.	.	2F/	-mor-	2d/	-mor-	4A/	-mor	2a\	-cen-
.	.	.	.	.	.	4A/	in-	.	.
=85-	=85-	=85-	=85-	=85-	=85-	=85-	=85-	=85-	=85-
.	.	2E/	-z'e	2e/	-za	2B/	-cen-	1g#X	-de
.	.	4.e\	Sol	4r	.	2E/	-de	.	.
*	*	*	*	*	*ij	*	*	*	*
.	.	.	.	4e/	Se'l	.	.	.	.
.	.	8e\	l'hu-	.	.	.	.	.	.
*	*ij	*	*	*custos:g#	*	*	*	*	*ij
!	!	!	!	!LO:LB:g=original	!	!	!	!	!
=86-	=86-	=86-	=86-	=86-	=86-	=86-	=86-	=86-	=86-
2r	.	4e\	-mor	4g#X\	faco	1r	.	0r	.
.	.	4f\	in-	4a\	am-	.	.	.	.
2D/	E	2d\	-cen-	2f/	-mor-	.	.	.	.
=87-	=87-	=87-	=87-	=87-	=87-	=87-	=87-	=87-	=87-
4.A\	ſol	2c\	-de	1e	-za	4r	.	.	.
.	.	.	.	.	.	4A/	E	.	.
8A\	l'hu-	.	.	.	.	.	.	.	.
4Gny\	-mor	2r	.	.	.	4.B/	ſol	.	.
4E\	in-	.	.	.	.	.	.	.	.
.	.	.	.	.	.	8B/	l'hu-	.	.
*	*	*	*	*	*Xij	*	*	*	*
=88-	=88-	=88-	=88-	=88-	=88-	=88-	=88-	=88-	=88-
2A\	-cen-	2r	.	4r	.	4cny/	-mor	4r	.
.	.	.	.	4e/	e	4c/	in-	4e/	E
2G\	-de	4r	.	4.b\	ſol	4d\	-cen-	4.gny/	ſol
.	.	4E/	Se'l	.	.	4e\	-de	.	.
.	.	.	.	8b\	l'hu-	.	.	8g/	l'hu-
=89-	=89-	=89-	=89-	=89-	=89-	=89-	=89-	=89-	=89-
1r	.	4Gny/	foc'	4b\	-mor	2r	.	4g/	-mor
.	.	4A/	am-	4cc\	in-	.	.	4e/	in-
.	.	2F/	-mor-	2a\	-cen-	4r	.	2d/	-cen-
*	*Xij	*	*	*	*	*	*ij	*	*
.	.	.	.	.	.	4A/	E	.	.
=90-	=90-	=90-	=90-	=90-	=90-	=90-	=90-	=90-	=90-
2r	.	2E/	-za	2g#X/	-de	4.B/	ſol	1e	-de
.	.	.	.	.	.	8B/	l'hu-	.	.
2AA/	e	4r	.	2r	.	4c/	-mor	.	.
.	.	4A/	E	.	.	4c/	in-	.	.
*	*	*	*	*	*ij	*	*	*	*Xij
=91-	=91-	=91-	=91-	=91-	=91-	=91-	=91-	=91-	=91-
4.E\	ſol	2G/	ſol	4r	.	2B/	-cen-	4r	.
.	.	.	.	4e/	e	.	.	4b\	E
8E\	l'hu-	.	.	.	.	.	.	.	.
4E\	-mor	4G/	l'hu-	4.gny/	ſol	4B/	-de	4.ee\	ſol
*	*	*	*	*	*	*	*Xij	*	*
4C/	in-	2E/	-mor	.	.	4e\	in-	.	.
.	.	.	.	8g/	l'hu-	.	.	8ee\	l'hu-
=92-	=92-	=92-	=92-	=92-	=92-	=92-	=92-	=92-	=92-
1AA	-cen-	.	.	4a\	-mor	1c	-cen-	4ee\	-mor
.	.	4E/	in-	4e/	in-	.	.	4cc\	in-
.	.	2A/	-cẽ(n)-	2e/	-cen-	.	.	2a\	-cen-
=93-	=93-	=93-	=93-	=93-	=93-	=93-	=93-	=93-	=93-
00E	-de.	00G#X	-de.	00e	-de	00B	-de.	00b	-de.
*	*	*	*	*	*Xij	*	*	*	*
==	==	==	==	==	==	==	==	==	==
*-	*-	*-	*-	*-	*-	*-	*-	*-	*-
!!!system-decoration: [(s1,s2,s3,s4,s5)]
!!!ENC: Marta Opryszak
!!!END: 2022-07-11
!!!ENC: Natalia Wrzos
!!!END: 2022-08-02
